src/icon/category/category-travel/icon_category-travel_xxl_black.svg

<svg width="48" height="48" viewBox="0 0 48 48" xmlns="http://www.w3.org/2000/svg"><g fill="none" fill-rule="evenodd"><path d="M0 0h48v48H0z"/><g fill="#0B1F35" fill-rule="nonzero"><path d="M19 46.542c0 .92.746 1.458 1.667 1.458h6.667c.92 0 1.666-.538 1.666-1.458V43H19v3.542z" opacity=".3"/><path d="M28.912 40v-.5c0-2.586 1.932-4.337 4.377-6.554C36.725 29.831 41 25.955 41 18c0-9.374-7.626-17-17-17C14.626 1 7 8.626 7 18c0 7.955 4.275 11.831 7.711 14.946 2.446 2.217 4.377 3.968 4.377 6.554v.5h9.824zm-13.529-7.795C11.922 29.067 8 25.512 8 18 8 9.178 15.178 2 24 2s16 7.178 16 16c0 7.512-3.922 11.067-7.383 14.205-2.383 2.161-4.46 4.044-4.686 6.795h-7.863c-.225-2.751-2.302-4.634-4.685-6.795z"/><path d="M25.833 39.5h2c0-3.986 1.379-6.719 2.838-9.61C32.308 26.646 34 23.293 34 18c0-6.097-2.643-13.15-6.382-16.09A16.524 16.524 0 0 0 24 1.5c-1.245 0-2.452.149-3.618.41C16.643 4.85 14 11.903 14 18c0 5.293 1.692 8.646 3.329 11.89 1.459 2.892 2.838 5.624 2.838 9.61h2c0-4.463-1.552-7.538-3.053-10.512C17.583 25.954 16 22.816 16 18c0-6.745 3.49-14.074 7-15.301V39.5h2V2.699c3.51 1.227 7 8.556 7 15.301 0 4.816-1.583 7.954-3.114 10.988-1.501 2.974-3.053 6.049-3.053 10.512z" opacity=".3"/></g></g></svg>

<?xml version="1.0" encoding="UTF-8"?>
<svg width="48px" height="48px" viewBox="0 0 48 48" version="1.1" xmlns="http://www.w3.org/2000/svg" xmlns:xlink="http://www.w3.org/1999/xlink">
    <!-- Generator: Sketch 48.2 (47327) - http://www.bohemiancoding.com/sketch -->
    <title>icon_category-travel_xxl_black</title>
    <desc>Created with Sketch.</desc>
    <defs></defs>
    <g id="mobile" stroke="none" stroke-width="1" fill="none" fill-rule="evenodd" transform="translate(-1159.000000, -894.000000)">
        <g id="Headings" transform="translate(64.000000, 77.000000)">
            <g id="icon_category_tourism__xxl__white" transform="translate(1095.000000, 817.000000)">
                <g id="ungroup">
                    <rect id="Rectangle-path" x="0" y="0" width="48" height="48"></rect>
                    <g id="a1" opacity="0.4"></g>
                    <path d="M19,46.542 C19,47.462 19.746,48 20.667,48 L27.334,48 C28.254,48 29,47.462 29,46.542 L29,43 L19,43 L19,46.542 L19,46.542 Z" id="Shape" fill="#0B1F35" opacity="0.3"></path>
                    <path d="M28.912,40 L28.912,39.5 C28.912,36.914 30.844,35.163 33.289,32.946 C36.725,29.831 41,25.955 41,18 C41,8.626 33.374,1 24,1 C14.626,1 7,8.626 7,18 C7,25.955 11.275,29.831 14.711,32.946 C17.157,35.163 19.088,36.914 19.088,39.5 L19.088,40 L28.912,40 L28.912,40 Z M15.383,32.205 C11.922,29.067 8,25.512 8,18 C8,9.178 15.178,2 24,2 C32.822,2 40,9.178 40,18 C40,25.512 36.078,29.067 32.617,32.205 C30.234,34.366 28.157,36.249 27.931,39 L20.068,39 C19.843,36.249 17.766,34.366 15.383,32.205 L15.383,32.205 Z" id="Shape" fill="#0B1F35"></path>
                    <path d="M25.833,39.5 L27.833,39.5 C27.833,35.514 29.212,32.781 30.671,29.89 C32.308,26.646 34,23.293 34,18 C34,11.903 31.357,4.85 27.618,1.91 C26.452,1.649 25.245,1.5 24,1.5 C22.755,1.5 21.548,1.649 20.382,1.91 C16.643,4.85 14,11.903 14,18 C14,23.293 15.692,26.646 17.329,29.89 C18.788,32.782 20.167,35.514 20.167,39.5 L22.167,39.5 C22.167,35.037 20.615,31.962 19.114,28.988 C17.583,25.954 16,22.816 16,18 C16,11.255 19.49,3.926 23,2.699 L23,39.5 L24,39.5 L25,39.5 L25,2.699 C28.51,3.926 32,11.255 32,18 C32,22.816 30.417,25.954 28.886,28.988 C27.385,31.962 25.833,35.037 25.833,39.5 L25.833,39.5 Z" id="Shape" fill="#0B1F35" opacity="0.3"></path>
                </g>
            </g>
        </g>
    </g>
</svg>
